public/static/lp/ybru.svg

<svg width="107" height="24" viewBox="0 0 107 24" fill="none" xmlns="http://www.w3.org/2000/svg">
<path d="M28.4471 0L17.0833 16.0788V23.8621H11.3648V16.0788L0 0H6.94102L14.206 10.963L21.471 0H28.4471Z" fill="#979AAD"/>
<path d="M51.1395 11.8799C51.7557 12.5294 52.2376 13.2832 52.5601 14.1019C52.8839 14.9206 53.0486 15.7882 53.046 16.6627C53.0531 17.6301 52.8512 18.5886 52.4528 19.4791C51.6757 21.2167 50.2168 22.599 48.385 23.3336C47.448 23.7105 46.4397 23.9015 45.422 23.8947H31.9351V0.0688283H45.422C46.4587 0.061102 47.4862 0.252644 48.4427 0.631914C49.3692 1.00222 50.2025 1.55458 50.8878 2.25262C51.5178 2.92299 52.0117 3.69825 52.3445 4.53924C52.6958 5.42285 52.8727 6.3603 52.8665 7.30472C52.8665 9.05828 52.2909 10.5833 51.1395 11.8799ZM37.6557 8.94403C37.6557 9.14968 37.7754 9.25153 38.0147 9.25153H45.2085C45.4592 9.25063 45.707 9.20009 45.936 9.10314C46.1649 9.00618 46.3701 8.86494 46.5383 8.68844C46.7235 8.51212 46.8696 8.30242 46.9681 8.07168C47.0666 7.84093 47.1155 7.59382 47.1119 7.34487C47.1299 7.10157 47.0909 6.85751 46.9976 6.63026C46.9043 6.403 46.7591 6.19823 46.5723 6.03068C46.3934 5.86047 46.1803 5.726 45.9457 5.63518C45.7111 5.54436 45.4598 5.49903 45.2064 5.50187H38.0126C37.7733 5.50187 37.6536 5.60404 37.6536 5.80838L37.6557 8.94403ZM37.6557 18.161C37.6557 18.3667 37.7754 18.4685 38.0147 18.4685H45.388C45.6415 18.4715 45.8931 18.4262 46.1278 18.3354C46.3626 18.2446 46.5758 18.11 46.755 17.9397C46.942 17.7708 47.0897 17.5666 47.1887 17.3403C47.2877 17.114 47.3357 16.8705 47.3296 16.6255C47.3138 16.1216 47.1017 15.6411 46.7343 15.277C46.5704 15.0999 46.3686 14.9581 46.1422 14.861C45.9159 14.7638 45.6704 14.7137 45.422 14.7139H38.0126C37.7733 14.7139 37.6536 14.8161 37.6536 15.0205L37.6557 18.161Z" fill="#979AAD"/>
<path d="M57.0014 10.7829V23.9649H62.756V21.1652C62.756 20.9605 62.8509 20.8577 63.0428 20.8577H67.7338C66.8919 15.2043 62.8066 11.4576 57.0014 10.7829Z" fill="url(#paint0_linear_1_2)"/>
<path d="M81.165 9.55894C81.0746 8.46496 80.7958 7.39245 80.3397 6.38412C79.7851 5.13799 78.979 4.0069 77.9669 3.05457C76.9555 2.10733 75.7657 1.34893 74.4592 0.818879C73.1143 0.270132 71.6644 -0.00860078 70.2005 0.000202192H69.2245C70.1995 5.69177 74.8409 9.05462 81.165 9.55894Z" fill="url(#paint1_linear_1_2)"/>
<path d="M67.7224 0.000335693H57.0014V9.5346C62.7818 8.95388 66.8569 5.60083 67.7224 0.000335693Z" fill="#979AAD"/>
<path d="M69.0399 22.6097L69.4092 23.965H75.5992L74.0836 20.1733C75.8884 19.5431 77.4793 18.4601 78.6869 17.0396C79.4943 16.1204 80.1272 15.0749 80.5573 13.95C80.9484 12.9214 81.1626 11.8399 81.1918 10.7467C74.2013 11.3598 69.2606 15.8762 69.0399 22.6097Z" fill="#979AAD"/>
<path d="M106.667 0.0344543V11.9817C106.667 13.4179 106.607 14.8062 106.487 16.1465C106.373 17.4679 105.956 18.7496 105.264 19.9011C104.424 21.3132 103.177 22.3601 101.524 23.0416C100.7 23.3768 99.8361 23.6174 98.9519 23.7585C97.8901 23.9273 96.8148 24.0079 95.7382 23.9994C94.6669 24.007 93.5969 23.9267 92.5401 23.7594C91.6497 23.6201 90.7803 23.3794 89.9506 23.0426C88.3768 22.4106 87.0636 21.3078 86.2108 19.9021C85.8734 19.3306 85.6078 18.7236 85.4195 18.0933C85.2274 17.4562 85.0894 16.8056 85.0069 16.1475C84.9216 15.4733 84.8734 14.7954 84.8624 14.1165C84.8501 13.4218 84.8442 12.7106 84.8449 11.9826V0.0344543H90.5995V11.9817C90.5995 13.0732 90.6236 14.0851 90.6717 15.0174C90.7199 15.9497 90.8956 16.6789 91.1989 17.2051C91.2829 17.3177 91.3727 17.4262 91.4682 17.5303C91.6627 17.7199 91.8953 17.8708 92.1522 17.9739C92.5785 18.1525 93.025 18.2839 93.483 18.3656C94.0456 18.4792 94.7949 18.536 95.731 18.536C96.4916 18.5504 97.2519 18.4933 98.0007 18.3656C98.4647 18.2854 98.9172 18.1539 99.349 17.9739C99.673 17.8263 99.8948 17.6784 100.014 17.5303C100.134 17.3824 100.221 17.2737 100.266 17.2051C100.578 16.6828 100.763 15.949 100.823 15.0037C100.883 14.0584 100.913 13.0514 100.913 11.9826V0.0344543H106.667Z" fill="#979AAD"/>
<defs>
<linearGradient id="paint0_linear_1_2" x1="57.3109" y1="24.1344" x2="63.3662" y2="13.085" gradientUnits="userSpaceOnUse">
<stop stop-color="#979AAD"/>
<stop offset="0.92" stop-color="#979AAD" stop-opacity="0.41"/>
</linearGradient>
<linearGradient id="paint1_linear_1_2" x1="77.4892" y1="2.60117" x2="73.3554" y2="6.95609" gradientUnits="userSpaceOnUse">
<stop stop-color="#979AAD"/>
<stop offset="0.26" stop-color="#979AAD" stop-opacity="0.75"/>
<stop offset="0.62" stop-color="#979AAD" stop-opacity="0.58"/>
<stop offset="0.79" stop-color="#979AAD" stop-opacity="0.5"/>
</linearGradient>
</defs>
</svg>

<svg xmlns="http://www.w3.org/2000/svg" width="107" height="24" fill="none"><path fill="#979AAD" d="M28.447 0 17.083 16.079v7.783h-5.718V16.08L0 0h6.941l7.265 10.963L21.471 0h6.976ZM51.14 11.88a6.91 6.91 0 0 1 1.906 4.783 6.77 6.77 0 0 1-.593 2.816c-.777 1.738-2.236 3.12-4.068 3.855a7.806 7.806 0 0 1-2.963.56H31.935V.07h13.487a8.039 8.039 0 0 1 3.02.563c.927.37 1.76.923 2.446 1.62a7.221 7.221 0 0 1 1.456 2.287 7.35 7.35 0 0 1 .523 2.766c0 1.753-.576 3.278-1.727 4.575ZM37.655 8.944c0 .206.12.308.359.308h7.194c.25-.001.498-.052.727-.149.229-.097.434-.238.602-.415.186-.176.332-.386.43-.616.099-.231.147-.478.144-.727a1.574 1.574 0 0 0-.114-.715 1.646 1.646 0 0 0-.426-.6 1.908 1.908 0 0 0-.626-.395 1.987 1.987 0 0 0-.74-.133h-7.193c-.24 0-.36.102-.36.306l.003 3.136Zm0 9.217c0 .206.12.307.359.307h7.373c.254.003.505-.042.74-.133a1.91 1.91 0 0 0 .627-.395c.187-.17.335-.373.434-.6.099-.226.147-.47.14-.715a1.986 1.986 0 0 0-.595-1.348 1.74 1.74 0 0 0-.592-.416 1.822 1.822 0 0 0-.72-.147h-7.41c-.239 0-.358.102-.358.306l.002 3.141Z"/><path fill="url(#a)" d="M57.001 10.783v13.182h5.755v-2.8c0-.204.095-.307.287-.307h4.69c-.841-5.654-4.926-9.4-10.732-10.075Z"/><path fill="url(#b)" d="M81.165 9.559a9.623 9.623 0 0 0-.825-3.175 10.362 10.362 0 0 0-2.373-3.33A11.395 11.395 0 0 0 74.459.82 11.105 11.105 0 0 0 70.201 0h-.976c.975 5.692 5.616 9.055 11.94 9.559Z"/><path fill="#979AAD" d="M67.722 0h-10.72v9.535C62.781 8.954 66.856 5.6 67.721 0ZM69.04 22.61l.37 1.355h6.19l-1.516-3.792a10.633 10.633 0 0 0 4.603-3.133c.807-.92 1.44-1.965 1.87-3.09a9.74 9.74 0 0 0 .635-3.203c-6.99.613-11.931 5.13-12.152 11.863ZM106.667.034v11.948c0 1.436-.06 2.824-.18 4.165a8.744 8.744 0 0 1-1.223 3.754c-.84 1.412-2.087 2.46-3.74 3.14-.824.336-1.688.576-2.572.718-1.062.168-2.137.249-3.214.24a19.569 19.569 0 0 1-3.198-.24c-.89-.139-1.76-.38-2.59-.716a7.724 7.724 0 0 1-3.74-3.14 8.142 8.142 0 0 1-.79-1.81 11.841 11.841 0 0 1-.413-1.945 18.577 18.577 0 0 1-.145-2.031c-.012-.695-.018-1.406-.017-2.134V.034H90.6v11.948c0 1.091.024 2.103.072 3.035.048.933.224 1.662.527 2.188.084.113.174.221.27.325.194.19.426.34.683.444.427.178.873.31 1.331.392.563.113 1.312.17 2.248.17.76.014 1.52-.043 2.27-.17.464-.08.916-.212 1.348-.392.324-.148.546-.296.665-.444.12-.148.207-.256.252-.325.312-.522.497-1.256.557-2.201.06-.946.09-1.953.09-3.021V.034h5.754Z"/><defs><linearGradient id="a" x1="57.311" x2="63.366" y1="24.134" y2="13.085" gradientUnits="userSpaceOnUse"><stop stop-color="#979AAD"/><stop offset=".92" stop-color="#979AAD" stop-opacity=".41"/></linearGradient><linearGradient id="b" x1="77.489" x2="73.355" y1="2.601" y2="6.956" gradientUnits="userSpaceOnUse"><stop stop-color="#979AAD"/><stop offset=".26" stop-color="#979AAD" stop-opacity=".75"/><stop offset=".62" stop-color="#979AAD" stop-opacity=".58"/><stop offset=".79" stop-color="#979AAD" stop-opacity=".5"/></linearGradient></defs></svg>
